src/pos-icons/step-forward-2.svg

<svg height="24" viewBox="0 0 24 24" width="24" xmlns="http://www.w3.org/2000/svg"><path d="m7 5h3v14h-3zm5 0 11 7-11 7zm-10 0h3v14h-3z"/></svg>

<?xml version="1.0" encoding="UTF-8"?><!DOCTYPE svg PUBLIC "-//W3C//DTD SVG 1.1//EN" "http://www.w3.org/Graphics/SVG/1.1/DTD/svg11.dtd"><svg xmlns="http://www.w3.org/2000/svg" xmlns:xlink="http://www.w3.org/1999/xlink" version="1.1" id="mdi-step-forward-2" width="24" height="24" viewBox="0 0 24 24"><path d="M7,5H10V19H7V5M12,5L23,12L12,19V5M2,5H5V19H2V5Z" /></svg>
